X:37
T:Der grimmig Tod mit seinem Pfeil...
B:Frau Nachtigall (Straburg - 1928)
Z:<anamnese@laposte.net> -- http://anamnese.fr.st
N:p.159
H:Aus der Zeit des dreiigfrigen Krieges. Weise 1539 augezeichnet.
M:C
L:1/4
Q:1/4=150
K:C
"Am"A2"Dm"AA | "Gm"GA"A7"FE | "Bb"D2"Dm"A2 | "C"c"Bb"d"F"A"E"B | "Am"c2"Am"A2 :|\
 "F"c2"C"cc | "Dm"A2F2 | "Bb"G"C7"G"F"F2 | z2"F"A2 |
"Dm"AA"Gm"GF | "A7"(FE)"Dm"D2 | "Am"A2"F"A"C"G | "F"A2"Dm"B2 |\
 "Am"c"Cx"A"E"E2 | z2"E"E2 | "Am"e"Bx"d"Cx"A"Dm"B | "E7"B2"Am"A2 |] 
W:Der grimmig Tod mit seinem Pfeil tut nach dem Leben zielen.
W:Das Leben schwindt wie Rauch im Wind, kein Fleisch mag ihm entrinnen,
W:kein Gut noch Schatz findt bei ihm Platz : du mu mit ihm von hinnen !
W:
W:Kein Mensch auf Erd uns sagen kann, wann wir von hinnen mssen ; 
W:wann kommt der Tod und klopfet an, so mu mn ihm aufschlieen.
W:Er nimmt mit Gwalt hin jung und alt, tut sich vor niemand scheuen. 
W:Des Knigs Stab bricht er bald ab und fhrt ihn an den Reihen.
